packages/components/src/components/icon/common/ic-macos.svg

<svg xmlns="http://www.w3.org/2000/svg" width="40" height="40" fill="none"><path d="M0 6c0-3.3 2.7-6 6-6h28c3.3 0 6 2.7 6 6v28c0 3.3-2.7 6-6 6H6c-3.3 0-6-2.7-6-6V6Z" fill="var(--general-section-1)"/><path d="M20.2 14.2c1.1 0 3.1-1.5 5.3-1.2 2 0 3.9 1 5 2.7-1.8 1.1-2.9 3.1-3 5.3 0 2.4 1.5 4.6 3.8 5.6-.5 1.4-1.1 2.7-2 3.9 0 0 0 .1-.1.1l-.1.3c-1.1 1.5-2.2 3-4 3-1.8 0-2.4-1.1-4.6-1.1-2.1 0-2.7 1.1-4.5 1.1-1.8.1-3.2-1.8-4.4-3.5-2.3-3.4-4.1-9.7-1.7-13.9 1.2-2.1 3.3-3.4 5.7-3.5 1.8 0 3.5 1.2 4.6 1.2Zm5.3-7.9c.1 1.6-.4 3.2-1.4 4.4-1 1.2-2.5 2-4.1 1.9-.1-1.5.4-3.1 1.4-4.2 1.1-1.2 2.5-2 4.1-2.1Z" fill="var(--text-prominent)"/></svg>

<svg xmlns="http://www.w3.org/2000/svg" width="40" height="40" viewBox="0 0 40 40" fill="none"><path d="M0 6C0 2.7 2.7 0 6 0H34C37.3 0 40 2.7 40 6V34C40 37.3 37.3 40 34 40H6C2.7 40 0 37.3 0 34V6Z" fill="var(--general-section-1)"/><path d="M20.2 14.2C21.3 14.2 23.3 12.7 25.5 13 27.5 13 29.4 14 30.5 15.7 28.7 16.8 27.6 18.8 27.5 21 27.5 23.4 29 25.6 31.3 26.6 30.8 28 30.2 29.3 29.3 30.5 29.3 30.5 29.3 30.6 29.2 30.6L29.1 30.9C28 32.4 26.9 33.9 25.1 33.9 23.3 33.9 22.7 32.8 20.5 32.8 18.4 32.8 17.8 33.9 16 33.9 14.2 34 12.8 32.1 11.6 30.4 9.3 27 7.5 20.7 9.9 16.5 11.1 14.4 13.2 13.1 15.6 13 17.4 13 19.1 14.2 20.2 14.2ZM25.5 6.3C25.6 7.9 25.1 9.5 24.1 10.7 23.1 11.9 21.6 12.7 20 12.6 19.9 11.1 20.4 9.5 21.4 8.4 22.5 7.2 23.9 6.4 25.5 6.3Z" fill="var(--text-prominent)"/></svg>
